src/assets/outline/Ticket2.svg

<svg width="24" height="24" viewBox="0 0 24 24"  xmlns="http://www.w3.org/2000/svg">
<path d="M16.6901 22.75H7.31012C3.14012 22.75 1.87012 21.48 1.87012 17.31V16.85C1.87012 16.44 2.21012 16.1 2.62012 16.1C3.50012 16.1 4.22012 15.38 4.22012 14.5C4.22012 13.62 3.50012 12.9 2.62012 12.9C2.21012 12.9 1.87012 12.56 1.87012 12.15V11.69C1.87012 7.52 3.14012 6.25 7.31012 6.25H16.6901C20.8601 6.25 22.1301 7.52 22.1301 11.69V12.63C22.1301 13.04 21.7901 13.38 21.3801 13.38C20.5001 13.38 19.7801 14.1 19.7801 14.98C19.7801 15.86 20.5001 16.57 21.3801 16.57C21.7901 16.57 22.1301 16.91 22.1301 17.32C22.1201 21.48 20.8501 22.75 16.6901 22.75ZM3.38012 17.51C3.40012 20.69 4.03012 21.25 7.32012 21.25H16.7001C19.8201 21.25 20.5401 20.74 20.6301 17.97C19.2901 17.63 18.2901 16.42 18.2901 14.97C18.2901 13.52 19.2901 12.3 20.6401 11.96V11.68C20.6401 8.33 20.0501 7.74 16.7001 7.74H7.31012C4.03012 7.74 3.40012 8.31 3.37012 11.48C4.72012 11.82 5.72012 13.04 5.72012 14.49C5.72012 15.94 4.72012 17.17 3.38012 17.51Z" />
<path d="M10 10.25C9.59 10.25 9.25 9.91 9.25 9.5V7C9.25 6.59 9.59 6.25 10 6.25C10.41 6.25 10.75 6.59 10.75 7V9.5C10.75 9.91 10.41 10.25 10 10.25Z" />
<path d="M10 16.92C9.59 16.92 9.25 16.58 9.25 16.17V12.84C9.25 12.43 9.59 12.09 10 12.09C10.41 12.09 10.75 12.43 10.75 12.84V16.17C10.75 16.58 10.41 16.92 10 16.92Z" />
<path d="M10 22.75C9.59 22.75 9.25 22.41 9.25 22V19.5C9.25 19.09 9.59 18.75 10 18.75C10.41 18.75 10.75 19.09 10.75 19.5V22C10.75 22.41 10.41 22.75 10 22.75Z" />
<path d="M16.3302 7.75001H7.24017C6.94017 7.75001 6.66017 7.57001 6.55017 7.29001C6.44017 7.01001 6.50017 6.68001 6.71017 6.47001L9.64017 3.54001C12.3402 0.840015 13.9902 0.840015 16.6802 3.54001L17.2802 4.14001C17.4202 4.28001 17.5002 4.47001 17.5002 4.67001C17.5002 4.87001 17.4202 5.06001 17.2802 5.20001C16.8802 5.60001 16.7702 6.19001 17.0002 6.70001C17.1102 6.93001 17.0902 7.20002 16.9502 7.42001C16.8202 7.62001 16.5802 7.75001 16.3302 7.75001ZM9.05017 6.25001H15.3802C15.3602 5.72001 15.4902 5.19001 15.7602 4.73001L15.6302 4.60001C13.5402 2.51001 12.8002 2.51001 10.7102 4.60001L9.05017 6.25001Z" />
</svg>

<?xml version="1.0" encoding="UTF-8"?>
<svg width="24" height="24" viewBox="0 0 24 24" xmlns="http://www.w3.org/2000/svg">
 <path d="m16.69 22.75h-9.38c-4.17 0-5.44-1.27-5.44-5.44v-0.46c0-0.41 0.34-0.75 0.75-0.75 0.88 0 1.6-0.72 1.6-1.6s-0.72-1.6-1.6-1.6c-0.41 0-0.75-0.34-0.75-0.75v-0.46c0-4.17 1.27-5.44 5.44-5.44h9.38c4.17 0 5.44 1.27 5.44 5.44v0.94c0 0.41-0.34 0.75-0.75 0.75-0.88 0-1.6 0.72-1.6 1.6s0.72 1.59 1.6 1.59c0.41 0 0.75 0.34 0.75 0.75-0.01 4.16-1.28 5.43-5.44 5.43zm-13.31-5.24c0.02 3.18 0.65 3.74 3.94 3.74h9.38c3.12 0 3.84-0.51 3.93-3.28-1.34-0.34-2.34-1.55-2.34-3s1-2.67 2.35-3.01v-0.28c0-3.35-0.59-3.94-3.94-3.94h-9.39c-3.28 0-3.91 0.57-3.94 3.74 1.35 0.34 2.35 1.56 2.35 3.01s-1 2.68-2.34 3.02z"/>
 <path d="m10 10.25c-0.41 0-0.75-0.34-0.75-0.75v-2.5c0-0.41 0.34-0.75 0.75-0.75s0.75 0.34 0.75 0.75v2.5c0 0.41-0.34 0.75-0.75 0.75z"/>
 <path d="m10 16.92c-0.41 0-0.75-0.34-0.75-0.75v-3.33c0-0.41 0.34-0.75 0.75-0.75s0.75 0.34 0.75 0.75v3.33c0 0.41-0.34 0.75-0.75 0.75z"/>
 <path d="m10 22.75c-0.41 0-0.75-0.34-0.75-0.75v-2.5c0-0.41 0.34-0.75 0.75-0.75s0.75 0.34 0.75 0.75v2.5c0 0.41-0.34 0.75-0.75 0.75z"/>
 <path d="m16.33 7.75h-9.09c-0.3 0-0.58-0.18-0.69-0.46s-0.05-0.61 0.16-0.82l2.93-2.93c2.7-2.7 4.35-2.7 7.04 0l0.6 0.6c0.14 0.14 0.22 0.33 0.22 0.53s-0.08 0.39-0.22 0.53c-0.4 0.4-0.51 0.99-0.28 1.5 0.11 0.23 0.09 0.50001-0.05 0.72-0.13 0.2-0.37 0.33-0.62 0.33zm-7.28-1.5h6.33c-0.02-0.53 0.11-1.06 0.38-1.52l-0.13-0.13c-2.09-2.09-2.83-2.09-4.92 0l-1.66 1.65z"/>
</svg>
